X:1
T:Robin Flower's Hornpipe
M:4/4
L:1/8
R:hornpipe
C:Robin Flower
Z:D. Asherman
N:Copyright 2002 Robin Flower
K:G
(3DEF|:GG (3GGG BG (3GGG|dG (3GGG BG (3GGG|
ABAG (3EFG BG|AGBG AGED|GG (3GGG BG (3GGG|
dG (3GGG BG (3GGG|ABAG (3EFG BG
|1 AGBA G2 (3DEF:|2 AGBA Gdef|
|:gdfd edBG|cGBG AGFE|(3DDE FG (3AAB cd|
e2 d2 Bdef|gdfd edBG|cgBg A2 AG|1 (3FFG AB cAFD
|AGBA Gdef:|2 !D.C.! (3FFG AB cAFD|AGBA G2 (3DEF||
!coda!(3FFG AG (3AAB cB|(3ccd ef g2 !fermata!G2||
